src/img/vk.svg

<svg class="svg_soc" width="22" height="22" viewBox="0 0 22 22" fill="none" xmlns="http://www.w3.org/2000/svg">
<path d="M11 0C4.92507 0 0 4.92485 0 11C0 17.0752 4.92507 22 11 22C17.0749 22 22 17.0752 22 11C22 4.92485 17.0749 0 11 0ZM16.5798 12.1897C17.0925 12.6905 17.6349 13.1617 18.0951 13.7143C18.299 13.9587 18.4913 14.2114 18.6375 14.4957C18.8464 14.901 18.6578 15.3455 18.295 15.3696L16.0414 15.3692C15.4594 15.4173 14.9962 15.1826 14.6058 14.7847C14.294 14.4676 14.0048 14.1288 13.7046 13.8009C13.5819 13.6663 13.4527 13.5396 13.2988 13.4399C12.9916 13.2401 12.7247 13.3013 12.5487 13.6222C12.3693 13.9488 12.3283 14.3107 12.3112 14.6742C12.2867 15.2055 12.1264 15.3444 11.5933 15.3694C10.454 15.4227 9.37301 15.2499 8.36833 14.6755C7.48203 14.1689 6.79603 13.4539 6.19826 12.6443C5.03423 11.0662 4.14275 9.33408 3.34175 7.55225C3.16147 7.15096 3.29336 6.93625 3.73606 6.92792C4.47157 6.91374 5.20708 6.91554 5.94259 6.92724C6.24192 6.93197 6.43998 7.10324 6.55499 7.3857C6.95245 8.3636 7.43971 9.29402 8.05031 10.1569C8.21303 10.3867 8.37913 10.6158 8.61567 10.7781C8.87675 10.9572 9.0757 10.898 9.19881 10.6066C9.27759 10.4214 9.31157 10.2233 9.32868 10.0248C9.38719 9.34488 9.39417 8.66519 9.29289 7.98797C9.22987 7.56417 8.99153 7.2905 8.56909 7.21037C8.35392 7.16964 8.38543 7.08996 8.49009 6.96708C8.67171 6.75462 8.84186 6.62318 9.18193 6.62318L11.7281 6.62273C12.1294 6.7015 12.2194 6.88156 12.2739 7.28577L12.2761 10.1153C12.2714 10.2717 12.3547 10.7353 12.6355 10.8377C12.8606 10.912 13.0091 10.7315 13.1437 10.589C13.7543 9.94107 14.1894 9.17631 14.579 8.38476C14.7509 8.03568 14.8992 7.67446 15.0433 7.31255C15.1504 7.04495 15.317 6.91329 15.619 6.91779L18.0708 6.92072C18.1431 6.92072 18.2165 6.92139 18.288 6.93377C18.7012 7.00444 18.8144 7.18224 18.6866 7.58533C18.4854 8.21866 18.0945 8.74621 17.7123 9.27511C17.3027 9.84137 16.8658 10.3878 16.4603 10.9566C16.0876 11.4765 16.1171 11.7382 16.5798 12.1897Z" fill="white"/>
<style>
.svg_soc:hover{
	cursor: pointer;
	opacity: 1;
}
.svg_soc{
	cursor: pointer;
	opacity: 0.3;
}
</style>
</svg>

<svg width="22" height="22" viewBox="0 0 22 22" fill="none" xmlns="http://www.w3.org/2000/svg"><path d="M11 0C4.925 0 0 4.925 0 11s4.925 11 11 11 11-4.925 11-11S17.075 0 11 0zm5.58 12.19c.513.5 1.055.972 1.515 1.524.204.245.396.497.543.782.208.405.02.85-.343.874h-2.254c-.582.047-1.045-.187-1.435-.585-.312-.317-.601-.656-.901-.984a2.11 2.11 0 0 0-.406-.361c-.307-.2-.574-.139-.75.182-.18.327-.22.689-.238 1.052-.024.532-.185.67-.718.695-1.139.054-2.22-.12-3.225-.694-.886-.506-1.572-1.221-2.17-2.03-1.164-1.579-2.055-3.31-2.856-5.093-.18-.401-.049-.616.394-.624a62.714 62.714 0 0 1 2.207 0c.299.004.497.175.612.458.397.978.885 1.908 1.495 2.77.163.23.33.46.566.622.26.18.46.12.583-.171a1.89 1.89 0 0 0 .13-.582c.058-.68.065-1.36-.036-2.037-.063-.424-.301-.698-.724-.778-.215-.04-.184-.12-.079-.243.182-.212.352-.344.692-.344h2.546c.401.079.491.259.546.663l.002 2.83c-.005.156.079.62.36.722.225.074.373-.106.508-.249.61-.648 1.045-1.413 1.435-2.204.172-.35.32-.71.464-1.072.107-.268.274-.4.576-.395l2.452.003c.072 0 .145 0 .217.013.413.07.526.248.399.651-.202.634-.593 1.161-.975 1.69-.41.566-.846 1.113-1.252 1.682-.372.52-.343.781.12 1.233z" fill="#fff" fill-opacity=".2"/></svg>
